X: 481
T: Cold Frosty Morning
B: jims roots
M:4/4
L:1/8
R: reel
Q: 1/4=100
K:Am
V:1 
|:"Am"EDEG A2AG|ABcde2 [ee][ee]|"G"GABA GEDE|GABc d2 dD|
"Am"EDEG A2AG|ABcde2 [ee][ee]|"G"cBAc "(E)"BAGD|"Am"GA A2 [A2A2} AA:|
"Am"Aa2 Aa3 A | abag ed^cd | "G"ede^f gfeg | ^fedB d-e [ee][ee]|
"Am"AaAA a3 a|abag edcA | "G"cBAc "(E)"BAGD | "Am" (GA) A2 [A2A2][A2A2]||
AaAA a3 a | abag ed^cd | "G"ede^f gfeg | ^fedf edcB |
"Am"A2AB cBAB | cBcd [de]e [ee][ee] | "G"cBAc "(E)"BAGD |"Am"(GA) A2 [A2A] [A2A]||
% abcbook-tune_id 6298c245260bdd89b9cc200e


% abcbook-boost 0
% abcbook-tablature 
% abcbook-transpose 
% abcbook-lastupdated 1654178373761
% abcbook-soundfonts 
% abcbook-repeats 1


